src/assets/filled/GooglePlay.svg

<svg width="24" height="24" viewBox="0 0 24 24"  xmlns="http://www.w3.org/2000/svg">
<path d="M21.4 12.95L18.62 14.34C18.43 14.44 18.2 14.4 18.04 14.25L16.17 12.38C15.97 12.18 15.97 11.87 16.17 11.67L18.07 9.77002C18.22 9.62002 18.46 9.58002 18.65 9.68002L21.4 11.06C22.19 11.44 22.19 12.56 21.4 12.95Z" />
<path d="M16.3 8.48948C16.61 8.63948 16.67 9.04949 16.43 9.28949L14.76 10.9595L14.05 11.6695C13.85 11.8695 13.54 11.8695 13.34 11.6695L6.19997 4.52948C5.79997 4.12948 6.26997 3.4795 6.77997 3.7295L16.3 8.48948Z" />
<path d="M2 20.1491V3.47911C2 3.03911 2.53 2.80909 2.85 3.11909L11.62 11.6291C11.83 11.8291 11.82 12.1591 11.61 12.3591L2.84 20.5191C2.52 20.8191 2 20.5891 2 20.1491Z" />
<path d="M16.2701 15.5207L6.88007 20.2207C6.37007 20.4707 5.90007 19.8207 6.30007 19.4207L13.3501 12.3707C13.5501 12.1707 13.8601 12.1707 14.0601 12.3707L16.4101 14.7207C16.6401 14.9607 16.5701 15.3707 16.2701 15.5207Z" />
</svg>

<?xml version="1.0" encoding="UTF-8"?>
<svg width="24" height="24" viewBox="0 0 24 24" xmlns="http://www.w3.org/2000/svg">
 <path d="m21.4 12.95-2.78 1.39c-0.19 0.1-0.42 0.06-0.58-0.09l-1.87-1.87c-0.2-0.2-0.2-0.51 0-0.71l1.9-1.9c0.15-0.15 0.39-0.19 0.58-0.09l2.75 1.38c0.79 0.38 0.79 1.5 0 1.89z"/>
 <path d="m16.3 8.4895c0.31 0.15 0.37 0.56001 0.13 0.80001l-1.67 1.67-0.71 0.71c-0.2 0.2-0.51 0.2-0.71 0l-7.14-7.14c-0.4-0.4 0.07-1.05 0.58-0.79998l9.52 4.76z"/>
 <path d="m2 20.149v-16.67c0-0.44 0.53-0.67002 0.85-0.36002l8.77 8.51c0.21 0.2 0.2 0.53-0.01 0.73l-8.77 8.16c-0.32 0.3-0.84 0.07-0.84-0.37z"/>
 <path d="m16.27 15.521-9.39 4.7c-0.51 0.25-0.98-0.4-0.58-0.8l7.05-7.05c0.2-0.2 0.51-0.2 0.71 0l2.35 2.35c0.23 0.24 0.16 0.65-0.14 0.8z"/>
</svg>
